Newaita-dark/mimetypes/32/payment-card-amex.svg

<svg height="32pt" viewBox="0 0 32 32" width="32pt" xmlns="http://www.w3.org/2000/svg" xmlns:xlink="http://www.w3.org/1999/xlink"><linearGradient id="a" gradientUnits="userSpaceOnUse" x1="16.538045" x2="16.538045" y1="26.049371" y2="27.37241487502"><stop offset="0" stop-opacity=".27451"/><stop offset="1" stop-opacity="0"/></linearGradient><linearGradient id="b"><stop offset="0" stop-opacity=".313725"/><stop offset=".222222" stop-opacity=".27451"/><stop offset="1" stop-opacity="0"/></linearGradient><radialGradient id="c" cx="450.90894" cy="189.57936" gradientTransform="matrix(.00000017 -.0781325 -.140638 -.0000001 53.453693 61.61077)" gradientUnits="userSpaceOnUse" r="21.166656" xlink:href="#b"/><radialGradient id="d" cx="450.90894" cy="189.57936" gradientTransform="matrix(-.00000017 .0781325 .140638 .0000001 -21.700661 -9.512043)" gradientUnits="userSpaceOnUse" r="21.166656" xlink:href="#b"/><radialGradient id="e" cx="450.90894" cy="189.57936" gradientTransform="matrix(-.00000017 -.0781325 .140638 -.0000001 -21.700661 61.61077)" gradientUnits="userSpaceOnUse" r="21.166656" xlink:href="#b"/><radialGradient id="f" cx="450.90894" cy="189.57936" gradientTransform="matrix(.00000017 .0781325 -.140638 .0000001 53.453692 -9.512044)" gradientUnits="userSpaceOnUse" r="21.166656" xlink:href="#b"/><linearGradient id="g" gradientUnits="userSpaceOnUse" x1="15.876524" x2="15.876524" y1="26.0493685" y2="6.2037135"><stop offset="0" stop-color="#42a5f5"/><stop offset="1" stop-color="#64b5f6"/></linearGradient><linearGradient id="h" gradientUnits="userSpaceOnUse" x1="15.876524" x2="15.876524" y1="26.0493685" y2="6.2037135"><stop offset="0" stop-color="#424242"/><stop offset="1" stop-color="#616161"/></linearGradient><path d="m4.628906 26.050781h22.492188v1.320313h-22.492188zm0 0" fill="url(#a)"/><path d="m27.121094 26.050781h2.648437v-1.324219h-2.648437zm0 0" fill="url(#c)"/><path d="m4.628906 26.050781h-2.644531v1.320313h2.644531zm0 0" fill="url(#d)"/><path d="m4.628906 26.050781h-2.644531v-1.324219h2.644531zm0 0" fill="url(#e)"/><path d="m27.121094 26.050781h2.648437v1.320313h-2.648437zm0 0" fill="url(#f)"/><path d="m3.96875 6.203125h23.816406c.730469 0 1.320313.59375 1.320313 1.324219v17.199218c0 .730469-.589844 1.324219-1.320313 1.324219h-23.816406c-.730469 0-1.324219-.59375-1.324219-1.324219v-17.199218c0-.730469.59375-1.324219 1.324219-1.324219zm0 0" fill="url(#g)"/><path d="m2.644531 8.851562h26.460938v3.96875h-26.460938zm0 0" fill="url(#h)"/><path d="m3.96875 6.203125c-.734375 0-1.324219.589844-1.324219 1.324219v.332031c0-.734375.589844-1.324219 1.324219-1.324219h23.816406c.730469 0 1.320313.589844 1.320313 1.324219v-.332031c0-.734375-.589844-1.324219-1.320313-1.324219zm0 0" fill="#fff" fill-opacity=".588235"/><path d="m2.644531 24.40625v.320312c0 .734376.589844 1.324219 1.324219 1.324219h23.816406c.730469 0 1.320313-.589843 1.320313-1.324219v-.320312c0 .734375-.589844 1.324219-1.320313 1.324219h-23.816406c-.734375 0-1.324219-.589844-1.324219-1.324219zm0 0" fill-opacity=".235294"/><path d="m63.493937-115.759477h381.026113c11.686384 0 21.122983 9.499093 21.122983 21.185477v275.161223c0 11.686384-9.436599 21.185477-21.122983 21.185477h-381.026113c-11.686384 0-21.185477-9.499093-21.185477-21.185477v-275.161223c0-11.686384 9.499093-21.185477 21.185477-21.185477zm0 0" fill="none" stroke="#212121" stroke-linecap="round" stroke-linejoin="round" stroke-width="3" transform="matrix(.062506 0 0 .062506 0 13.438783)"/><path d="m7.9375 16.125h9.921875c.367187 0 .664063.296875.664063.664062v1.984376c0 .363281-.296876.660156-.664063.660156h-9.921875c-.363281 0-.660156-.296875-.660156-.660156v-1.984376c0-.367187.296875-.664062.660156-.664062zm0 0" fill="#eee"/><path d="m19.84375 16.125h3.308594c.367187 0 .664062.296875.664062.664062v1.984376c0 .363281-.296875.660156-.664062.660156h-3.308594c-.363281 0-.660156-.296875-.660156-.660156v-1.984376c0-.367187.296875-.664062.660156-.664062zm0 0" fill="#eee"/><g fill="none" stroke="#212121" stroke-linecap="round" stroke-linejoin="round" stroke-width="3" transform="matrix(.062506 0 0 .062506 0 13.438783)"><path d="m42.30846-73.388523h423.334573v63.493936h-423.334573zm0 0"/><path d="m126.987873 42.975365h158.734842c5.874439 0 10.623985 4.749546 10.623985 10.623985v31.746968c0 5.811945-4.749546 10.561492-10.623985 10.561492h-158.734842c-5.811945 0-10.561491-4.749547-10.561491-10.561492v-31.746968c0-5.874439 4.749546-10.623985 10.561491-10.623985zm0 0"/><path d="m317.469683 42.975365h52.932445c5.874439 0 10.623986 4.749546 10.623986 10.623985v31.746968c0 5.811945-4.749547 10.561492-10.623986 10.561492h-52.932445c-5.811945 0-10.561491-4.749547-10.561491-10.561492v-31.746968c0-5.874439 4.749546-10.623985 10.561491-10.623985zm0 0"/></g></svg>

<svg xmlns="http://www.w3.org/2000/svg" xmlns:xlink="http://www.w3.org/1999/xlink" width="32px" height="32px" viewBox="0 0 32 32" version="1.1">
<defs>
<linearGradient id="linear0" gradientUnits="userSpaceOnUse" x1="33.076088" y1="52.098743" x2="33.076088" y2="54.744831" gradientTransform="matrix(0.5,0,0,0.5,0,0)">
<stop offset="0" style="stop-color:rgb(0%,0%,0%);stop-opacity:0.27451;"/>
<stop offset="1" style="stop-color:rgb(0%,0%,0%);stop-opacity:0;"/>
</linearGradient>
<radialGradient id="radial0" gradientUnits="userSpaceOnUse" cx="450.908936" cy="189.579361" fx="450.908936" fy="189.579361" r="21.166656" gradientTransform="matrix(0.000000175,-0.0781325,-0.140639,-0.0000001,53.453693,61.610771)">
<stop offset="0" style="stop-color:rgb(0%,0%,0%);stop-opacity:0.313725;"/>
<stop offset="0.222222" style="stop-color:rgb(0%,0%,0%);stop-opacity:0.27451;"/>
<stop offset="1" style="stop-color:rgb(0%,0%,0%);stop-opacity:0;"/>
</radialGradient>
<radialGradient id="radial1" gradientUnits="userSpaceOnUse" cx="450.908936" cy="189.579361" fx="450.908936" fy="189.579361" r="21.166656" gradientTransform="matrix(-0.000000175,0.0781325,0.140639,0.0000001,-21.700661,-9.512043)">
<stop offset="0" style="stop-color:rgb(0%,0%,0%);stop-opacity:0.313725;"/>
<stop offset="0.222222" style="stop-color:rgb(0%,0%,0%);stop-opacity:0.27451;"/>
<stop offset="1" style="stop-color:rgb(0%,0%,0%);stop-opacity:0;"/>
</radialGradient>
<radialGradient id="radial2" gradientUnits="userSpaceOnUse" cx="450.908936" cy="189.579361" fx="450.908936" fy="189.579361" r="21.166656" gradientTransform="matrix(-0.000000175,-0.0781325,0.140639,-0.0000001,-21.700661,61.610771)">
<stop offset="0" style="stop-color:rgb(0%,0%,0%);stop-opacity:0.313725;"/>
<stop offset="0.222222" style="stop-color:rgb(0%,0%,0%);stop-opacity:0.27451;"/>
<stop offset="1" style="stop-color:rgb(0%,0%,0%);stop-opacity:0;"/>
</radialGradient>
<radialGradient id="radial3" gradientUnits="userSpaceOnUse" cx="450.908936" cy="189.579361" fx="450.908936" fy="189.579361" r="21.166656" gradientTransform="matrix(0.000000175,0.0781325,-0.140639,0.0000001,53.453693,-9.512044)">
<stop offset="0" style="stop-color:rgb(0%,0%,0%);stop-opacity:0.313725;"/>
<stop offset="0.222222" style="stop-color:rgb(0%,0%,0%);stop-opacity:0.27451;"/>
<stop offset="1" style="stop-color:rgb(0%,0%,0%);stop-opacity:0;"/>
</radialGradient>
<linearGradient id="linear1" gradientUnits="userSpaceOnUse" x1="31.753048" y1="52.098736" x2="31.753048" y2="12.407427" gradientTransform="matrix(0.5,0,0,0.5,0,0)">
<stop offset="0" style="stop-color:rgb(25.882354%,64.705884%,96.078432%);stop-opacity:1;"/>
<stop offset="1" style="stop-color:rgb(39.215687%,70.980394%,96.470588%);stop-opacity:1;"/>
</linearGradient>
<linearGradient id="linear2" gradientUnits="userSpaceOnUse" x1="31.753048" y1="52.098736" x2="31.753048" y2="12.407427" gradientTransform="matrix(0.5,0,0,0.5,0,0)">
<stop offset="0" style="stop-color:rgb(25.882354%,25.882354%,25.882354%);stop-opacity:1;"/>
<stop offset="1" style="stop-color:rgb(38.039216%,38.039216%,38.039216%);stop-opacity:1;"/>
</linearGradient>
</defs>
<g id="surface1">
<path style=" stroke:none;fill-rule:nonzero;fill:url(#linear0);" d="M 4.632812 26.046875 L 27.125 26.046875 L 27.125 27.375 L 4.632812 27.375 Z M 4.632812 26.046875 "/>
<path style=" stroke:none;fill-rule:nonzero;fill:url(#radial0);" d="M 27.125 26.046875 L 29.765625 26.046875 L 29.765625 24.726562 L 27.125 24.726562 Z M 27.125 26.046875 "/>
<path style=" stroke:none;fill-rule:nonzero;fill:url(#radial1);" d="M 4.632812 26.046875 L 1.984375 26.046875 L 1.984375 27.375 L 4.632812 27.375 Z M 4.632812 26.046875 "/>
<path style=" stroke:none;fill-rule:nonzero;fill:url(#radial2);" d="M 4.632812 26.046875 L 1.984375 26.046875 L 1.984375 24.726562 L 4.632812 24.726562 Z M 4.632812 26.046875 "/>
<path style=" stroke:none;fill-rule:nonzero;fill:url(#radial3);" d="M 27.125 26.046875 L 29.765625 26.046875 L 29.765625 27.375 L 27.125 27.375 Z M 27.125 26.046875 "/>
<path style=" stroke:none;fill-rule:nonzero;fill:url(#linear1);" d="M 3.96875 6.203125 L 27.78125 6.203125 C 28.515625 6.203125 29.109375 6.796875 29.109375 7.527344 L 29.109375 24.726562 C 29.109375 25.457031 28.515625 26.046875 27.78125 26.046875 L 3.96875 26.046875 C 3.238281 26.046875 2.648438 25.457031 2.648438 24.726562 L 2.648438 7.527344 C 2.648438 6.796875 3.238281 6.203125 3.96875 6.203125 Z M 3.96875 6.203125 "/>
<path style=" stroke:none;fill-rule:nonzero;fill:url(#linear2);" d="M 2.648438 8.851562 L 29.109375 8.851562 L 29.109375 12.820312 L 2.648438 12.820312 Z M 2.648438 8.851562 "/>
<path style=" stroke:none;fill-rule:nonzero;fill:rgb(100%,100%,100%);fill-opacity:0.588235;" d="M 3.96875 6.203125 C 3.234375 6.203125 2.648438 6.792969 2.648438 7.527344 L 2.648438 7.859375 C 2.648438 7.125 3.234375 6.535156 3.96875 6.535156 L 27.78125 6.535156 C 28.515625 6.535156 29.109375 7.125 29.109375 7.859375 L 29.109375 7.527344 C 29.109375 6.792969 28.515625 6.203125 27.78125 6.203125 Z M 3.96875 6.203125 "/>
<path style=" stroke:none;fill-rule:nonzero;fill:rgb(0%,0%,0%);fill-opacity:0.235294;" d="M 2.648438 24.40625 L 2.648438 24.726562 C 2.648438 25.460938 3.234375 26.046875 3.96875 26.046875 L 27.78125 26.046875 C 28.515625 26.046875 29.109375 25.460938 29.109375 24.726562 L 29.109375 24.40625 C 29.109375 25.140625 28.515625 25.730469 27.78125 25.730469 L 3.96875 25.730469 C 3.234375 25.730469 2.648438 25.140625 2.648438 24.40625 Z M 2.648438 24.40625 "/>
<path style="fill:none;stroke-width:3;stroke-linecap:round;stroke-linejoin:round;stroke:rgb(12.941177%,12.941177%,12.941177%);stroke-opacity:1;stroke-miterlimit:4;" d="M 63.493907 -115.759414 L 444.519842 -115.759414 C 456.206221 -115.759414 465.705309 -106.260326 465.705309 -94.573947 L 465.705309 180.587147 C 465.705309 192.273526 456.206221 201.772614 444.519842 201.772614 L 63.493907 201.772614 C 51.807528 201.772614 42.370934 192.273526 42.370934 180.587147 L 42.370934 -94.573947 C 42.370934 -106.260326 51.807528 -115.759414 63.493907 -115.759414 Z M 63.493907 -115.759414 " transform="matrix(0.062506,0,0,0.062506,0,13.438783)"/>
<path style=" stroke:none;fill-rule:nonzero;fill:rgb(93.333334%,93.333334%,93.333334%);fill-opacity:1;" d="M 7.9375 16.125 L 17.859375 16.125 C 18.226562 16.125 18.523438 16.421875 18.523438 16.789062 L 18.523438 18.773438 C 18.523438 19.140625 18.226562 19.433594 17.859375 19.433594 L 7.9375 19.433594 C 7.570312 19.433594 7.277344 19.140625 7.277344 18.773438 L 7.277344 16.789062 C 7.277344 16.421875 7.570312 16.125 7.9375 16.125 Z M 7.9375 16.125 "/>
<path style=" stroke:none;fill-rule:nonzero;fill:rgb(93.333334%,93.333334%,93.333334%);fill-opacity:1;" d="M 19.84375 16.125 L 23.152344 16.125 C 23.519531 16.125 23.8125 16.421875 23.8125 16.789062 L 23.8125 18.773438 C 23.8125 19.140625 23.519531 19.433594 23.152344 19.433594 L 19.84375 19.433594 C 19.480469 19.433594 19.183594 19.140625 19.183594 18.773438 L 19.183594 16.789062 C 19.183594 16.421875 19.480469 16.125 19.84375 16.125 Z M 19.84375 16.125 "/>
<path style="fill:none;stroke-width:3;stroke-linecap:round;stroke-linejoin:round;stroke:rgb(12.941177%,12.941177%,12.941177%);stroke-opacity:1;stroke-miterlimit:4;" d="M 42.370934 -73.450974 L 465.705309 -73.450974 L 465.705309 -9.957068 L 42.370934 -9.957068 Z M 42.370934 -73.450974 " transform="matrix(0.062506,0,0,0.062506,0,13.438783)"/>
<path style="fill:none;stroke-width:3;stroke-linecap:round;stroke-linejoin:round;stroke:rgb(12.941177%,12.941177%,12.941177%);stroke-opacity:1;stroke-miterlimit:4;" d="M 126.987814 43.037847 L 285.785075 43.037847 C 291.597017 43.037847 296.346562 47.724897 296.346562 53.599333 L 296.346562 85.346287 C 296.346562 91.220723 291.597017 95.907773 285.785075 95.907773 L 126.987814 95.907773 C 121.175872 95.907773 116.426327 91.220723 116.426327 85.346287 L 116.426327 53.599333 C 116.426327 47.724897 121.175872 43.037847 126.987814 43.037847 Z M 126.987814 43.037847 " transform="matrix(0.062506,0,0,0.062506,0,13.438783)"/>
<path style="fill:none;stroke-width:3;stroke-linecap:round;stroke-linejoin:round;stroke:rgb(12.941177%,12.941177%,12.941177%);stroke-opacity:1;stroke-miterlimit:4;" d="M 317.532029 43.037847 L 370.401955 43.037847 C 376.276391 43.037847 381.025935 47.724897 381.025935 53.599333 L 381.025935 85.346287 C 381.025935 91.220723 376.276391 95.907773 370.401955 95.907773 L 317.532029 95.907773 C 311.657592 95.907773 306.908048 91.220723 306.908048 85.346287 L 306.908048 53.599333 C 306.908048 47.724897 311.657592 43.037847 317.532029 43.037847 Z M 317.532029 43.037847 " transform="matrix(0.062506,0,0,0.062506,0,13.438783)"/>
</g>
</svg>
